src/images/tabblemob.svg

<svg width="306" height="243" viewBox="0 0 306 243" fill="none" xmlns="http://www.w3.org/2000/svg">
<path d="M3.38741 170.096L5.96341 169.2H7.08341V179H5.79541V170.6L3.70941 171.216L3.38741 170.096ZM15.3776 177.796C14.7243 178.72 13.7956 179.182 12.5916 179.182C11.3876 179.182 10.459 178.72 9.80564 177.796C9.14297 176.863 8.81164 175.631 8.81164 174.1C8.81164 172.569 9.14297 171.337 9.80564 170.404C10.459 169.48 11.3876 169.018 12.5916 169.018C13.7956 169.018 14.7243 169.48 15.3776 170.404C16.0403 171.337 16.3716 172.569 16.3716 174.1C16.3716 175.631 16.0403 176.863 15.3776 177.796ZM10.1136 174.1C10.1136 175.313 10.3283 176.251 10.7576 176.914C11.187 177.577 11.7983 177.908 12.5916 177.908C13.385 177.908 13.9963 177.577 14.4256 176.914C14.8643 176.251 15.0836 175.313 15.0836 174.1C15.0836 172.887 14.8643 171.949 14.4256 171.286C13.9963 170.614 13.385 170.278 12.5916 170.278C11.7983 170.278 11.187 170.609 10.7576 171.272C10.3283 171.935 10.1136 172.877 10.1136 174.1Z" fill="white"/>
<path d="M15.3776 210.796C14.7243 211.72 13.7956 212.182 12.5916 212.182C11.3876 212.182 10.459 211.72 9.80564 210.796C9.14297 209.863 8.81164 208.631 8.81164 207.1C8.81164 205.569 9.14297 204.337 9.80564 203.404C10.459 202.48 11.3876 202.018 12.5916 202.018C13.7956 202.018 14.7243 202.48 15.3776 203.404C16.0403 204.337 16.3716 205.569 16.3716 207.1C16.3716 208.631 16.0403 209.863 15.3776 210.796ZM10.1136 207.1C10.1136 208.313 10.3283 209.251 10.7576 209.914C11.187 210.577 11.7983 210.908 12.5916 210.908C13.385 210.908 13.9963 210.577 14.4256 209.914C14.8643 209.251 15.0836 208.313 15.0836 207.1C15.0836 205.887 14.8643 204.949 14.4256 204.286C13.9963 203.614 13.385 203.278 12.5916 203.278C11.7983 203.278 11.187 203.609 10.7576 204.272C10.3283 204.935 10.1136 205.877 10.1136 207.1Z" fill="white"/>
<path d="M43.196 233.096L45.772 232.2H46.892V242H45.604V233.6L43.518 234.216L43.196 233.096ZM93.3222 242H86.9942V240.936L90.4522 237.408C91.3762 236.484 91.8382 235.691 91.8382 235.028C91.8382 234.487 91.6702 234.062 91.3342 233.754C91.0076 233.437 90.5969 233.278 90.1022 233.278C89.1782 233.278 88.5062 233.717 88.0862 234.594L86.9942 233.95C87.2929 233.325 87.7129 232.849 88.2542 232.522C88.7956 232.186 89.4069 232.018 90.0882 232.018C90.9189 232.018 91.6329 232.289 92.2302 232.83C92.8369 233.381 93.1402 234.109 93.1402 235.014C93.1402 236.003 92.5569 237.081 91.3902 238.248L88.8842 240.74H93.3222V242ZM138.925 233.348L136.797 236.218C137.562 236.358 138.178 236.685 138.645 237.198C139.112 237.711 139.345 238.346 139.345 239.102C139.345 240.063 139.018 240.815 138.365 241.356C137.702 241.907 136.909 242.182 135.985 242.182C135.22 242.182 134.552 242.009 133.983 241.664C133.414 241.319 133.008 240.829 132.765 240.194L133.857 239.55C134.146 240.455 134.856 240.908 135.985 240.908C136.601 240.908 137.096 240.749 137.469 240.432C137.852 240.105 138.043 239.662 138.043 239.102C138.043 238.542 137.852 238.099 137.469 237.772C137.096 237.445 136.601 237.282 135.985 237.282H135.649L135.131 236.484L137.399 233.418H133.045V232.2H138.925V233.348ZM185.001 238.92H186.191V240.138H185.001V242H183.699V240.138H178.701V238.92L182.215 232.2H183.615L180.101 238.92H183.699V236.148H185.001V238.92ZM227.338 236.022H228.766C229.69 236.022 230.47 236.297 231.104 236.848C231.748 237.399 232.07 238.15 232.07 239.102C232.07 240.063 231.744 240.815 231.09 241.356C230.428 241.907 229.634 242.182 228.71 242.182C227.945 242.182 227.268 242 226.68 241.636C226.102 241.263 225.7 240.745 225.476 240.082L226.582 239.452C226.713 239.919 226.965 240.278 227.338 240.53C227.712 240.782 228.169 240.908 228.71 240.908C229.336 240.908 229.835 240.749 230.208 240.432C230.591 240.105 230.782 239.662 230.782 239.102C230.782 238.542 230.591 238.099 230.208 237.772C229.835 237.445 229.345 237.282 228.738 237.282H225.966L226.33 232.2H231.692V233.418H227.506L227.338 236.022ZM274.854 235.588C275.834 235.588 276.641 235.896 277.276 236.512C277.911 237.119 278.228 237.907 278.228 238.878C278.228 239.849 277.911 240.642 277.276 241.258C276.641 241.874 275.834 242.182 274.854 242.182C273.855 242.182 273.043 241.874 272.418 241.258C271.793 240.642 271.48 239.849 271.48 238.878C271.48 238.113 271.676 237.459 272.068 236.918L275.218 232.2H276.702L274.392 235.616C274.672 235.597 274.826 235.588 274.854 235.588ZM274.854 236.834C274.229 236.834 273.725 237.021 273.342 237.394C272.959 237.767 272.768 238.262 272.768 238.878C272.768 239.494 272.959 239.993 273.342 240.376C273.734 240.749 274.238 240.936 274.854 240.936C275.47 240.936 275.969 240.749 276.352 240.376C276.744 239.993 276.94 239.494 276.94 238.878C276.94 238.262 276.744 237.767 276.352 237.394C275.969 237.021 275.47 236.834 274.854 236.834Z" fill="white"/>
<path d="M4.6042 137.096L7.1802 136.2H8.3002V146H7.0122V137.6L4.9262 138.216L4.6042 137.096ZM11.7504 140.022H13.1784C14.1024 140.022 14.8818 140.297 15.5164 140.848C16.1604 141.399 16.4824 142.15 16.4824 143.102C16.4824 144.063 16.1558 144.815 15.5024 145.356C14.8398 145.907 14.0464 146.182 13.1224 146.182C12.3571 146.182 11.6804 146 11.0924 145.636C10.5138 145.263 10.1124 144.745 9.88844 144.082L10.9944 143.452C11.1251 143.919 11.3771 144.278 11.7504 144.53C12.1238 144.782 12.5811 144.908 13.1224 144.908C13.7478 144.908 14.2471 144.749 14.6204 144.432C15.0031 144.105 15.1944 143.662 15.1944 143.102C15.1944 142.542 15.0031 142.099 14.6204 141.772C14.2471 141.445 13.7571 141.282 13.1504 141.282H10.3784L10.7424 136.2H16.1044V137.418H11.9184L11.7504 140.022Z" fill="white"/>
<path d="M7.76755 113H1.43955V111.936L4.89755 108.408C5.82155 107.484 6.28355 106.691 6.28355 106.028C6.28355 105.487 6.11555 105.062 5.77955 104.754C5.45288 104.437 5.04221 104.278 4.54755 104.278C3.62355 104.278 2.95155 104.717 2.53155 105.594L1.43955 104.95C1.73821 104.325 2.15821 103.849 2.69955 103.522C3.24088 103.186 3.85221 103.018 4.53355 103.018C5.36421 103.018 6.07821 103.289 6.67555 103.83C7.28221 104.381 7.58555 105.109 7.58555 106.014C7.58555 107.003 7.00221 108.081 5.83555 109.248L3.32955 111.74H7.76755V113ZM15.3776 111.796C14.7243 112.72 13.7956 113.182 12.5916 113.182C11.3876 113.182 10.459 112.72 9.80564 111.796C9.14297 110.863 8.81164 109.631 8.81164 108.1C8.81164 106.569 9.14297 105.337 9.80564 104.404C10.459 103.48 11.3876 103.018 12.5916 103.018C13.7956 103.018 14.7243 103.48 15.3776 104.404C16.0403 105.337 16.3716 106.569 16.3716 108.1C16.3716 109.631 16.0403 110.863 15.3776 111.796ZM10.1136 108.1C10.1136 109.313 10.3283 110.251 10.7576 110.914C11.187 111.577 11.7983 111.908 12.5916 111.908C13.385 111.908 13.9963 111.577 14.4256 110.914C14.8643 110.251 15.0836 109.313 15.0836 108.1C15.0836 106.887 14.8643 105.949 14.4256 105.286C13.9963 104.614 13.385 104.278 12.5916 104.278C11.7983 104.278 11.187 104.609 10.7576 105.272C10.3283 105.935 10.1136 106.877 10.1136 108.1Z" fill="white"/>
<path d="M8.957 80H2.629V78.936L6.087 75.408C7.011 74.484 7.473 73.6907 7.473 73.028C7.473 72.4867 7.305 72.062 6.969 71.754C6.64233 71.4367 6.23167 71.278 5.737 71.278C4.813 71.278 4.141 71.7167 3.721 72.594L2.629 71.95C2.92767 71.3247 3.34767 70.8487 3.889 70.522C4.43033 70.186 5.04167 70.018 5.723 70.018C6.55367 70.018 7.26767 70.2887 7.865 70.83C8.47167 71.3807 8.775 72.1087 8.775 73.014C8.775 74.0033 8.19167 75.0813 7.025 76.248L4.519 78.74H8.957V80ZM11.7504 74.022H13.1784C14.1024 74.022 14.8818 74.2973 15.5164 74.848C16.1604 75.3987 16.4824 76.15 16.4824 77.102C16.4824 78.0633 16.1558 78.8147 15.5024 79.356C14.8398 79.9067 14.0464 80.182 13.1224 80.182C12.3571 80.182 11.6804 80 11.0924 79.636C10.5138 79.2627 10.1124 78.7447 9.88844 78.082L10.9944 77.452C11.1251 77.9187 11.3771 78.278 11.7504 78.53C12.1238 78.782 12.5811 78.908 13.1224 78.908C13.7478 78.908 14.2471 78.7493 14.6204 78.432C15.0031 78.1053 15.1944 77.662 15.1944 77.102C15.1944 76.542 15.0031 76.0987 14.6204 75.772C14.2471 75.4453 13.7571 75.282 13.1504 75.282H10.3784L10.7424 70.2H16.1044V71.418H11.9184L11.7504 74.022Z" fill="white"/>
<path d="M7.24145 38.348L5.11345 41.218C5.87879 41.358 6.49479 41.6847 6.96145 42.198C7.42812 42.7113 7.66145 43.346 7.66145 44.102C7.66145 45.0633 7.33479 45.8147 6.68145 46.356C6.01879 46.9067 5.22545 47.182 4.30145 47.182C3.53612 47.182 2.86879 47.0093 2.29945 46.664C1.73012 46.3187 1.32412 45.8287 1.08145 45.194L2.17345 44.55C2.46279 45.4553 3.17212 45.908 4.30145 45.908C4.91745 45.908 5.41212 45.7493 5.78545 45.432C6.16812 45.1053 6.35945 44.662 6.35945 44.102C6.35945 43.542 6.16812 43.0987 5.78545 42.772C5.41212 42.4453 4.91745 42.282 4.30145 42.282H3.96545L3.44745 41.484L5.71545 38.418H1.36145V37.2H7.24145V38.348ZM15.3776 45.796C14.7243 46.72 13.7956 47.182 12.5916 47.182C11.3876 47.182 10.459 46.72 9.80564 45.796C9.14297 44.8627 8.81164 43.6307 8.81164 42.1C8.81164 40.5693 9.14297 39.3373 9.80564 38.404C10.459 37.48 11.3876 37.018 12.5916 37.018C13.7956 37.018 14.7243 37.48 15.3776 38.404C16.0403 39.3373 16.3716 40.5693 16.3716 42.1C16.3716 43.6307 16.0403 44.8627 15.3776 45.796ZM10.1136 42.1C10.1136 43.3133 10.3283 44.2513 10.7576 44.914C11.187 45.5767 11.7983 45.908 12.5916 45.908C13.385 45.908 13.9963 45.5767 14.4256 44.914C14.8643 44.2513 15.0836 43.3133 15.0836 42.1C15.0836 40.8867 14.8643 39.9487 14.4256 39.286C13.9963 38.614 13.385 38.278 12.5916 38.278C11.7983 38.278 11.187 38.6093 10.7576 39.272C10.3283 39.9347 10.1136 40.8773 10.1136 42.1Z" fill="white"/>
<path d="M8.59497 5.348L6.46697 8.218C7.2323 8.358 7.8483 8.68467 8.31497 9.198C8.78164 9.71133 9.01497 10.346 9.01497 11.102C9.01497 12.0633 8.6883 12.8147 8.03497 13.356C7.3723 13.9067 6.57897 14.182 5.65497 14.182C4.88964 14.182 4.2223 14.0093 3.65297 13.664C3.08364 13.3187 2.67764 12.8287 2.43497 12.194L3.52697 11.55C3.8163 12.4553 4.52564 12.908 5.65497 12.908C6.27097 12.908 6.76564 12.7493 7.13897 12.432C7.52164 12.1053 7.71297 11.662 7.71297 11.102C7.71297 10.542 7.52164 10.0987 7.13897 9.772C6.76564 9.44533 6.27097 9.282 5.65497 9.282H5.31897L4.80097 8.484L7.06897 5.418H2.71497V4.2H8.59497V5.348ZM11.7504 8.022H13.1784C14.1024 8.022 14.8818 8.29733 15.5164 8.848C16.1604 9.39867 16.4824 10.15 16.4824 11.102C16.4824 12.0633 16.1558 12.8147 15.5024 13.356C14.8398 13.9067 14.0464 14.182 13.1224 14.182C12.3571 14.182 11.6804 14 11.0924 13.636C10.5138 13.2627 10.1124 12.7447 9.88844 12.082L10.9944 11.452C11.1251 11.9187 11.3771 12.278 11.7504 12.53C12.1238 12.782 12.5811 12.908 13.1224 12.908C13.7478 12.908 14.2471 12.7493 14.6204 12.432C15.0031 12.1053 15.1944 11.662 15.1944 11.102C15.1944 10.542 15.0031 10.0987 14.6204 9.772C14.2471 9.44533 13.7571 9.282 13.1504 9.282H10.3784L10.7424 4.2H16.1044V5.418H11.9184L11.7504 8.022Z" fill="white"/>
<path d="M37 207H296V208H37V207Z" fill="#97A7FD"/>
<path d="M37 174H296V175H37V174Z" fill="#97A7FD"/>
<path d="M37 141H296V142H37V141Z" fill="#97A7FD"/>
<path d="M37 108H296V109H37V108Z" fill="#97A7FD"/>
<path d="M37 75H296V76H37V75Z" fill="#97A7FD"/>
<path d="M37 42H296V43H37V42Z" fill="#97A7FD"/>
<path d="M37 9H296V10H37V9Z" fill="#97A7FD"/>
<rect x="42" y="177" width="8" height="28" rx="4" fill="#CAFF4D"/>
<rect x="86" y="144" width="8" height="61" rx="4" fill="#CAFF4D"/>
<rect x="132" y="111" width="8" height="94" rx="4" fill="#CAFF4D"/>
<rect x="179" y="78" width="8" height="127" rx="4" fill="#CAFF4D"/>
<rect x="225" y="45" width="8" height="160" rx="4" fill="#CAFF4D"/>
<rect x="271" y="12" width="8" height="193" rx="4" fill="#CAFF4D"/>
</svg>

<svg width="306" height="243" fill="none" xmlns="http://www.w3.org/2000/svg"><path d="M3.387 170.096l2.576-.896h1.12v9.8H5.795v-8.4l-2.086.616-.322-1.12zm11.99 7.7c-.653.924-1.581 1.386-2.785 1.386-1.204 0-2.133-.462-2.786-1.386-.663-.933-.994-2.165-.994-3.696 0-1.531.331-2.763.994-3.696.653-.924 1.582-1.386 2.786-1.386s2.132.462 2.786 1.386c.662.933.994 2.165.994 3.696 0 1.531-.332 2.763-.994 3.696zm-5.263-3.696c0 1.213.214 2.151.644 2.814.429.663 1.04.994 1.834.994.793 0 1.404-.331 1.834-.994.438-.663.658-1.601.658-2.814s-.22-2.151-.658-2.814c-.43-.672-1.041-1.008-1.834-1.008-.794 0-1.405.331-1.834.994-.43.663-.644 1.605-.644 2.828zm5.264 36.696c-.654.924-1.582 1.386-2.786 1.386s-2.133-.462-2.786-1.386c-.663-.933-.994-2.165-.994-3.696 0-1.531.331-2.763.994-3.696.653-.924 1.582-1.386 2.786-1.386s2.132.462 2.786 1.386c.662.933.994 2.165.994 3.696 0 1.531-.332 2.763-.994 3.696zm-5.264-3.696c0 1.213.214 2.151.644 2.814.429.663 1.04.994 1.834.994.793 0 1.404-.331 1.834-.994.438-.663.658-1.601.658-2.814s-.22-2.151-.658-2.814c-.43-.672-1.041-1.008-1.834-1.008-.794 0-1.405.331-1.834.994-.43.663-.644 1.605-.644 2.828zm33.082 25.996l2.576-.896h1.12v9.8h-1.288v-8.4l-2.086.616-.322-1.12zM93.322 242h-6.328v-1.064l3.458-3.528c.924-.924 1.386-1.717 1.386-2.38 0-.541-.168-.966-.504-1.274-.326-.317-.737-.476-1.232-.476-.924 0-1.596.439-2.016 1.316l-1.092-.644c.299-.625.719-1.101 1.26-1.428a3.406 3.406 0 011.834-.504c.83 0 1.545.271 2.142.812.607.551.91 1.279.91 2.184 0 .989-.583 2.067-1.75 3.234l-2.506 2.492h4.438V242zm45.603-8.652l-2.128 2.87c.765.14 1.381.467 1.848.98.467.513.7 1.148.7 1.904 0 .961-.327 1.713-.98 2.254-.663.551-1.456.826-2.38.826-.765 0-1.433-.173-2.002-.518a2.868 2.868 0 01-1.218-1.47l1.092-.644c.289.905.999 1.358 2.128 1.358.616 0 1.111-.159 1.484-.476.383-.327.574-.77.574-1.33s-.191-1.003-.574-1.33c-.373-.327-.868-.49-1.484-.49h-.336l-.518-.798 2.268-3.066h-4.354V232.2h5.88v1.148zm46.076 5.572h1.19v1.218h-1.19V242h-1.302v-1.862h-4.998v-1.218l3.514-6.72h1.4l-3.514 6.72h3.598v-2.772h1.302v2.772zm42.337-2.898h1.428c.924 0 1.704.275 2.338.826.644.551.966 1.302.966 2.254 0 .961-.326 1.713-.98 2.254-.662.551-1.456.826-2.38.826-.765 0-1.442-.182-2.03-.546a2.902 2.902 0 01-1.204-1.554l1.106-.63c.131.467.383.826.756 1.078.374.252.831.378 1.372.378.626 0 1.125-.159 1.498-.476.383-.327.574-.77.574-1.33s-.191-1.003-.574-1.33c-.373-.327-.863-.49-1.47-.49h-2.772l.364-5.082h5.362v1.218h-4.186l-.168 2.604zm47.516-.434c.98 0 1.787.308 2.422.924.635.607.952 1.395.952 2.366 0 .971-.317 1.764-.952 2.38-.635.616-1.442.924-2.422.924-.999 0-1.811-.308-2.436-.924-.625-.616-.938-1.409-.938-2.38 0-.765.196-1.419.588-1.96l3.15-4.718h1.484l-2.31 3.416c.28-.019.434-.028.462-.028zm0 1.246c-.625 0-1.129.187-1.512.56-.383.373-.574.868-.574 1.484s.191 1.115.574 1.498c.392.373.896.56 1.512.56s1.115-.187 1.498-.56c.392-.383.588-.882.588-1.498s-.196-1.111-.588-1.484c-.383-.373-.882-.56-1.498-.56zM4.604 137.096l2.576-.896H8.3v9.8H7.012v-8.4l-2.086.616-.322-1.12zm7.146 2.926h1.428c.924 0 1.704.275 2.338.826.644.551.966 1.302.966 2.254 0 .961-.326 1.713-.98 2.254-.662.551-1.456.826-2.38.826-.765 0-1.442-.182-2.03-.546a2.899 2.899 0 01-1.204-1.554l1.106-.63c.131.467.383.826.756 1.078.374.252.831.378 1.372.378.626 0 1.125-.159 1.498-.476.383-.327.574-.77.574-1.33s-.19-1.003-.574-1.33c-.373-.327-.863-.49-1.47-.49h-2.772l.364-5.082h5.362v1.218h-4.186l-.168 2.604zM7.768 113H1.44v-1.064l3.458-3.528c.924-.924 1.386-1.717 1.386-2.38 0-.541-.168-.966-.504-1.274-.327-.317-.738-.476-1.232-.476-.924 0-1.596.439-2.016 1.316l-1.092-.644c.298-.625.718-1.101 1.26-1.428a3.406 3.406 0 011.834-.504c.83 0 1.544.271 2.142.812.606.551.91 1.279.91 2.184 0 .989-.584 2.067-1.75 3.234L3.33 111.74h4.438V113zm7.61-1.204c-.654.924-1.582 1.386-2.786 1.386s-2.133-.462-2.786-1.386c-.663-.933-.994-2.165-.994-3.696 0-1.531.331-2.763.994-3.696.653-.924 1.582-1.386 2.786-1.386s2.132.462 2.786 1.386c.662.933.994 2.165.994 3.696 0 1.531-.332 2.763-.994 3.696zm-5.264-3.696c0 1.213.214 2.151.644 2.814.429.663 1.04.994 1.834.994.793 0 1.404-.331 1.834-.994.438-.663.658-1.601.658-2.814s-.22-2.151-.658-2.814c-.43-.672-1.041-1.008-1.834-1.008-.794 0-1.405.331-1.834.994-.43.663-.644 1.605-.644 2.828zM8.957 80H2.629v-1.064l3.458-3.528c.924-.924 1.386-1.717 1.386-2.38 0-.541-.168-.966-.504-1.274-.327-.317-.737-.476-1.232-.476-.924 0-1.596.439-2.016 1.316l-1.092-.644c.299-.625.719-1.101 1.26-1.428a3.406 3.406 0 011.834-.504c.83 0 1.545.27 2.142.812.607.55.91 1.279.91 2.184 0 .99-.583 2.067-1.75 3.234L4.519 78.74h4.438V80zm2.793-5.978h1.428c.924 0 1.704.275 2.338.826.644.55.966 1.302.966 2.254 0 .961-.326 1.713-.98 2.254-.662.55-1.456.826-2.38.826-.765 0-1.442-.182-2.03-.546a2.9 2.9 0 01-1.204-1.554l1.106-.63c.131.467.383.826.756 1.078.374.252.831.378 1.372.378.626 0 1.125-.159 1.498-.476.383-.327.574-.77.574-1.33s-.19-1.003-.574-1.33c-.373-.327-.863-.49-1.47-.49h-2.772l.364-5.082h5.362v1.218h-4.186l-.168 2.604zM7.241 38.348l-2.128 2.87c.766.14 1.382.467 1.848.98.467.513.7 1.148.7 1.904 0 .961-.326 1.713-.98 2.254-.662.55-1.456.826-2.38.826-.765 0-1.432-.173-2.002-.518a2.867 2.867 0 01-1.218-1.47l1.092-.644c.29.905 1 1.358 2.128 1.358.616 0 1.111-.159 1.484-.476.383-.327.574-.77.574-1.33s-.19-1.003-.574-1.33c-.373-.327-.868-.49-1.484-.49h-.336l-.518-.798 2.268-3.066H1.361V37.2h5.88v1.148zm8.137 7.448c-.654.924-1.582 1.386-2.786 1.386s-2.133-.462-2.786-1.386c-.663-.933-.994-2.165-.994-3.696 0-1.53.331-2.763.994-3.696.653-.924 1.582-1.386 2.786-1.386s2.132.462 2.786 1.386c.662.933.994 2.165.994 3.696 0 1.53-.332 2.763-.994 3.696zM10.114 42.1c0 1.213.214 2.151.644 2.814.429.663 1.04.994 1.834.994.793 0 1.404-.331 1.834-.994.438-.663.658-1.6.658-2.814 0-1.213-.22-2.151-.658-2.814-.43-.672-1.041-1.008-1.834-1.008-.794 0-1.405.331-1.834.994-.43.663-.644 1.605-.644 2.828zM8.595 5.348l-2.128 2.87c.765.14 1.381.467 1.848.98.467.513.7 1.148.7 1.904 0 .961-.327 1.713-.98 2.254-.663.55-1.456.826-2.38.826-.765 0-1.433-.173-2.002-.518a2.867 2.867 0 01-1.218-1.47l1.092-.644c.29.905.999 1.358 2.128 1.358.616 0 1.11-.159 1.484-.476.383-.327.574-.77.574-1.33s-.191-1.003-.574-1.33c-.373-.327-.868-.49-1.484-.49h-.336l-.518-.798 2.268-3.066H2.715V4.2h5.88v1.148zm3.155 2.674h1.428c.924 0 1.704.275 2.338.826.644.55.966 1.302.966 2.254 0 .961-.326 1.713-.98 2.254-.662.55-1.456.826-2.38.826-.765 0-1.442-.182-2.03-.546a2.9 2.9 0 01-1.204-1.554l1.106-.63c.131.467.383.826.756 1.078.374.252.831.378 1.372.378.626 0 1.125-.159 1.498-.476.383-.327.574-.77.574-1.33s-.19-1.003-.574-1.33c-.373-.327-.863-.49-1.47-.49h-2.772l.364-5.082h5.362v1.218h-4.186l-.168 2.604z" fill="#fff"/><path d="M37 207h259v1H37v-1zm0-33h259v1H37v-1zm0-33h259v1H37v-1zm0-33h259v1H37v-1zm0-33h259v1H37v-1zm0-33h259v1H37v-1zm0-33h259v1H37V9z" fill="#97A7FD"/><rect x="42" y="177" width="8" height="28" rx="4" fill="#CAFF4D"/><rect x="86" y="144" width="8" height="61" rx="4" fill="#CAFF4D"/><rect x="132" y="111" width="8" height="94" rx="4" fill="#CAFF4D"/><rect x="179" y="78" width="8" height="127" rx="4" fill="#CAFF4D"/><rect x="225" y="45" width="8" height="160" rx="4" fill="#CAFF4D"/><rect x="271" y="12" width="8" height="193" rx="4" fill="#CAFF4D"/></svg>
